X:1
T:Title
%%score { ( 1 4 5 ) | ( 2 3 ) }
L:1/8
M:3/4
K:Ab
V:1 treble nm="Grand Piano"
V:4 treble 
V:5 treble 
V:2 bass 
V:3 bass 
V:1
 z2 z2[Q:1/4=100] [A,C]>[B,D] | [CE]3 [CE] F>G | [CA]2 [Ec]2 [Ec]>[Ec] | d3 B e>d |[M:2/4] c4 | %5
[M:1/4] c>d |[M:3/4] e3 c (3[E-c][EB][_GA] | [FA]2 F2 F>F | E2- (3E=DE F>G |[M:2/4] [CA]4 | %10
[M:4/4] z2 B6 | (3BAB [Ec]>[Ec] [Ec]4 | z2 =d6 |[M:9/8] z2 e- e3 z3 |[M:4/4] z2 c6 | %15
 [_Ge]2 [Fd]4 F2 | F2 E2 =D>E F2 |[M:3/4] z2 A4- | A2 z2 z2 |] %19
V:2
 z2 z2 [A,,E,]>[A,,E,] | [A,,A,]3 [A,,A,] [D,A,D]>[E,D] | [A,,E,]2 [A,,A,]2 [A,,A,]>[A,,A,] | %3
 [E,G,E]3 [E,G,E] [E,CE]>[E,B,E] |[M:2/4][K:treble] [A,E]4 |[M:1/4] [A,A]>[A,B,A] | %6
[M:3/4] [A,CA]3 [A,A][K:bass] (3[A,,A,][B,,G,][C,A,] | [D,A,]2 [D,A,D]2 [D,A,D]>[D,A,D] | %8
 z2 (3z _C[E,A,=C] [E,G,D]>[E,D] |[M:2/4] [A,,E,]4 | %10
[M:4/4] z4 (3[E,G,][E,G,][E,G,] (3[E,G,][E,G,E][E,G,E] | %11
 (3[E,G,E][E,F,E][E,G,E] [A,,A,]>[A,,A,] [A,,A,]4 | z4 [B,,B,]>[B,,B,] (3[B,,B,][B,,B,][B,,B,] | %13
[M:9/8] z2 B,- B, z z z3 |[M:4/4] z2 A,6 | [C,A,]2 [D,A,]4 [D,A,D]2 | %16
 [D,A,D]2 [E,A,C]2 [E,A,_C]>[E,A,=C] [E,G,D]2 |[M:3/4] [E,D]>[E,D] A,,2- [A,,-F,]2 | %18
 [A,,E,]2 z2 z2 |] %19
V:3
 x6 | x6 | x6 | x6 |[M:2/4][K:treble] x4 |[M:1/4] x2 |[M:3/4] x4[K:bass] x2 | x6 | .[E,A,C]4 z2 | %9
[M:2/4] x4 |[M:4/4] x8 | x8 | x8 |[M:9/8] [B,,B,]>[B,,B,]E,- E,- [E,-C]2 [E,D]3 | %14
[M:4/4] (3C_CB, z2 (3A,,A,,A,, A,,2 | x8 | x8 |[M:3/4] z2 E,2 z2 | x6 |] %19
V:4
 x6 | x6 | x6 | x6 |[M:2/4] x4 |[M:1/4] x2 |[M:3/4] x6 | x6 | x6 |[M:2/4] x4 | %10
[M:4/4] (3AGA z2 (3EEE (3EBB | x8 | (3cde z2 F>F (3F[F=d][Fd] | %13
[M:9/8] (4:3:4[F=d][Ge].[Af] z z A2 B3 |[M:4/4] (3e=d_d z2 (3EEE E2 | x8 | x8 |[M:3/4] G>G C2 D2 | %18
 C2 z2 z2 |] %19
V:5
 x6 | x6 | x6 | x6 |[M:2/4] x4 |[M:1/4] x2 |[M:3/4] x6 | x6 | x6 |[M:2/4] x4 |[M:4/4] x8 | x8 | %12
 x8 |[M:9/8] z2 G- G z z z3 |[M:4/4] x8 | x8 | x8 |[M:3/4] x6 | x6 |] %19

